X: 1
T: Jodie's Jump
M: 6/8
L: 1/8
R: jig
K: Amin
|:eAA eAA|cdc cBA|eAA eAA|BcB BAG|eAA eAA|cdc cBA|BcB dBA|edB BAG|ABd:||:eaa bag|egg ged|eaa bag|e^fe edB|ABd e^fg|eaa bag|egg ged|edB edB|BAG:||EAc edc|edc edc|EAc edc|cdc BAG|EAc edc|edc e^fe|edc cBA|BAG AGE|EAc edc|edc edc|EAc edc|cdc BAG|EAc edc|Acd eaa|egg e^f^f|^fed e^fe|ded cAG|A2||
